git/novice/img/git-when-revisions-updated.svg

<?xml version="1.0" encoding="UTF-8" standalone="no"?>
<svg
   xmlns:ooo="http://xml.openoffice.org/svg/export"
   xmlns:dc="http://purl.org/dc/elements/1.1/"
   xmlns:cc="http://creativecommons.org/ns#"
   xmlns:rdf="http://www.w3.org/1999/02/22-rdf-syntax-ns#"
   xmlns:svg="http://www.w3.org/2000/svg"
   xmlns="http://www.w3.org/2000/svg"
   xmlns:sodipodi="http://sodipodi.sourceforge.net/DTD/sodipodi-0.dtd"
   xmlns:inkscape="http://www.inkscape.org/namespaces/inkscape"
   version="1.2"
   width="455.31497"
   height="119.96932"
   viewBox="0 0 12850 3385.8009"
   preserveAspectRatio="xMidYMid"
   clip-path="url(#presentation_clip_path)"
   xml:space="preserve"
   id="svg17331"
   inkscape:version="0.48.2 r9819"
   sodipodi:docname="git-when-revisions-updated.svg"
   style="fill-rule:evenodd;stroke-width:28.22200012;stroke-linejoin:round"><metadata
   id="metadata17556"><rdf:RDF><cc:Work
       rdf:about=""><dc:format>image/svg+xml</dc:format><dc:type
         rdf:resource="http://purl.org/dc/dcmitype/StillImage" /></cc:Work></rdf:RDF></metadata><sodipodi:namedview
   pagecolor="#ffffff"
   bordercolor="#666666"
   borderopacity="1"
   objecttolerance="10"
   gridtolerance="10"
   guidetolerance="10"
   inkscape:pageopacity="0"
   inkscape:pageshadow="2"
   inkscape:window-width="640"
   inkscape:window-height="480"
   id="namedview17554"
   showgrid="false"
   fit-margin-top="0"
   fit-margin-left="0"
   fit-margin-right="0"
   fit-margin-bottom="0"
   inkscape:zoom="0.23838384"
   inkscape:cx="341.8937"
   inkscape:cy="-335.51838"
   inkscape:window-x="0"
   inkscape:window-y="0"
   inkscape:window-maximized="0"
   inkscape:current-layer="svg17331" />
 <defs
   class="ClipPathGroup"
   id="defs17333">
  <clipPath
   id="presentation_clip_path"
   clipPathUnits="userSpaceOnUse">
   <rect
   x="0"
   y="0"
   width="21590"
   height="27940"
   id="rect17336" />
  </clipPath>
 </defs>
 <defs
   class="TextShapeIndex"
   id="defs17338">
  <g
   ooo:slide="id1"
   ooo:id-list="id3 id4 id5 id6 id7 id8 id9 id10 id11 id12 id13 id14 id15 id16 id17"
   id="g17340" />
 </defs>
 <defs
   class="EmbeddedBulletChars"
   id="defs17342">
  <g
   id="bullet-char-template(57356)"
   transform="scale(4.8828125e-4,-4.8828125e-4)">
   <path
   d="M 580,1141 1163,571 580,0 -4,571 580,1141 z"
   id="path17345"
   inkscape:connector-curvature="0" />
  </g>
  <g
   id="bullet-char-template(57354)"
   transform="scale(4.8828125e-4,-4.8828125e-4)">
   <path
   d="m 8,1128 1129,0 L 1137,0 8,0 8,1128 z"
   id="path17348"
   inkscape:connector-curvature="0" />
  </g>
  <g
   id="bullet-char-template(10146)"
   transform="scale(4.8828125e-4,-4.8828125e-4)">
   <path
   d="M 174,0 602,739 174,1481 1456,739 174,0 z m 1184,739 -1049,607 350,-607 699,0 z"
   id="path17351"
   inkscape:connector-curvature="0" />
  </g>
  <g
   id="bullet-char-template(10132)"
   transform="scale(4.8828125e-4,-4.8828125e-4)">
   <path
   d="M 2015,739 1276,0 717,0 l 543,543 -1086,0 0,393 1086,0 -543,545 557,0 741,-742 z"
   id="path17354"
   inkscape:connector-curvature="0" />
  </g>
  <g
   id="bullet-char-template(10007)"
   transform="scale(4.8828125e-4,-4.8828125e-4)">
   <path
   d="m 0,-2 c -7,16 -16,29 -25,39 l 381,530 c -94,256 -141,385 -141,387 0,25 13,38 40,38 9,0 21,-2 34,-5 21,4 42,12 65,25 l 27,-13 111,-251 280,301 64,-25 24,25 c 21,-10 41,-24 62,-43 C 886,937 835,863 770,784 769,783 710,716 594,584 L 774,223 c 0,-27 -21,-55 -63,-84 l 16,-20 C 717,90 699,76 672,76 641,76 570,178 457,381 L 164,-76 c -22,-34 -53,-51 -92,-51 -42,0 -63,17 -64,51 -7,9 -10,24 -10,44 0,9 1,19 2,30 z"
   id="path17357"
   inkscape:connector-curvature="0" />
  </g>
  <g
   id="bullet-char-template(10004)"
   transform="scale(4.8828125e-4,-4.8828125e-4)">
   <path
   d="M 285,-33 C 182,-33 111,30 74,156 52,228 41,333 41,471 c 0,78 14,145 41,201 34,71 87,106 158,106 53,0 88,-31 106,-94 l 23,-176 c 8,-64 28,-97 59,-98 l 735,706 c 11,11 33,17 66,17 42,0 63,-15 63,-46 l 0,-122 c 0,-36 -10,-64 -30,-84 L 442,47 C 390,-6 338,-33 285,-33 z"
   id="path17360"
   inkscape:connector-curvature="0" />
  </g>
  <g
   id="bullet-char-template(9679)"
   transform="scale(4.8828125e-4,-4.8828125e-4)">
   <path
   d="M 813,0 C 632,0 489,54 383,161 276,268 223,411 223,592 c 0,181 53,324 160,431 106,107 249,161 430,161 179,0 323,-54 432,-161 108,-107 162,-251 162,-431 0,-180 -54,-324 -162,-431 C 1136,54 992,0 813,0 z"
   id="path17363"
   inkscape:connector-curvature="0" />
  </g>
  <g
   id="bullet-char-template(8226)"
   transform="scale(4.8828125e-4,-4.8828125e-4)">
   <path
   d="m 346,457 c -73,0 -137,26 -191,78 -54,51 -81,114 -81,188 0,73 27,136 81,188 54,52 118,78 191,78 73,0 134,-26 185,-79 51,-51 77,-114 77,-187 0,-75 -25,-137 -76,-188 -50,-52 -112,-78 -186,-78 z"
   id="path17366"
   inkscape:connector-curvature="0" />
  </g>
  <g
   id="bullet-char-template(8211)"
   transform="scale(4.8828125e-4,-4.8828125e-4)">
   <path
   d="m -4,459 1139,0 0,147 -1139,0 0,-147 z"
   id="path17369"
   inkscape:connector-curvature="0" />
  </g>
 </defs>
 <defs
   class="TextEmbeddedBitmaps"
   id="defs17371" />
 <g
   id="g17373"
   transform="translate(-1146,-1115.125)">
  <g
   id="id2"
   class="Master_Slide">
   <g
   id="bg-id2"
   class="Background" />
   <g
   id="bo-id2"
   class="BackgroundObjects" />
  </g>
 </g>
 <g
   class="SlideGroup"
   id="g17378"
   transform="translate(-1146,-1115.125)">
  <g
   id="g17380">
   <g
   id="id1"
   class="Slide"
   clip-path="url(#presentation_clip_path)">
    <g
   class="Page"
   id="g17383">
     <g
   class="com.sun.star.drawing.CustomShape"
   id="g17385">
      <g
   id="id3">
       <path
   d="m 1171,1850 1400,0 0,1575 -175,225 -1225,0 0,-1800 z"
   id="path17388"
   inkscape:connector-curvature="0"
   style="fill:none;stroke:#000000;stroke-width:50" />
       <path
   d="m 2396,3650 46,-225 c 44,33 42,14 129,0 l -175,225 z"
   id="path17390"
   inkscape:connector-curvature="0"
   style="fill:none;stroke:#000000;stroke-width:50" />
       <text
   class="TextShape"
   id="text17392"><tspan
     class="TextParagraph"
     font-size="388px"
     font-weight="400"
     id="tspan17394"
     style="font-size:388px;font-weight:400;font-family:'Arial, sans-serif'"><tspan
       class="TextPosition"
       x="1331"
       y="2780"
       id="tspan17396"><tspan
         id="tspan17398"
         style="fill:#000000;stroke:none">ABCD</tspan></tspan></tspan></text>

      </g>
     </g>
     <g
   class="com.sun.star.drawing.CustomShape"
   id="g17400">
      <g
   id="id4">
       <path
   d="m 4971,1850 1400,0 0,1575 -175,225 -1225,0 0,-1800 z"
   id="path17403"
   inkscape:connector-curvature="0"
   style="fill:none;stroke:#000000;stroke-width:50" />
       <path
   d="m 6196,3650 46,-225 c 44,33 42,14 129,0 l -175,225 z"
   id="path17405"
   inkscape:connector-curvature="0"
   style="fill:none;stroke:#000000;stroke-width:50" />
       <text
   class="TextShape"
   id="text17407"><tspan
     class="TextParagraph"
     font-size="388px"
     font-weight="400"
     id="tspan17409"
     style="font-size:388px;font-weight:400;font-family:'Arial, sans-serif'"><tspan
       class="TextPosition"
       x="5131"
       y="2780"
       id="tspan17411"><tspan
         id="tspan17413"
         style="fill:#000000;stroke:none">EFGH</tspan></tspan></tspan></text>

      </g>
     </g>
     <g
   class="com.sun.star.drawing.CustomShape"
   id="g17415">
      <g
   id="id5">
       <path
   d="m 8771,1850 1400,0 0,1575 -175,225 -1225,0 0,-1800 z"
   id="path17418"
   inkscape:connector-curvature="0"
   style="fill:none;stroke:#000000;stroke-width:50" />
       <path
   d="m 9996,3650 46,-225 c 44,33 42,14 129,0 l -175,225 z"
   id="path17420"
   inkscape:connector-curvature="0"
   style="fill:none;stroke:#000000;stroke-width:50" />
       <text
   class="TextShape"
   id="text17422"><tspan
     class="TextParagraph"
     font-size="388px"
     font-weight="400"
     id="tspan17424"
     style="font-size:388px;font-weight:400;font-family:'Arial, sans-serif'"><tspan
       class="TextPosition"
       x="9084"
       y="2780"
       id="tspan17426"><tspan
         id="tspan17428"
         style="fill:#000000;stroke:none">IJKL</tspan></tspan></tspan></text>

      </g>
     </g>
     <g
   class="com.sun.star.drawing.CustomShape"
   id="g17430">
      <g
   id="id6">
       <path
   d="m 12571,1850 1400,0 0,1575 -175,225 -1225,0 0,-1800 z"
   id="path17433"
   inkscape:connector-curvature="0"
   style="fill:none;stroke:#000000;stroke-width:50" />
       <path
   d="m 13796,3650 46,-225 c 44,33 42,14 129,0 l -175,225 z"
   id="path17435"
   inkscape:connector-curvature="0"
   style="fill:none;stroke:#000000;stroke-width:50" />
       <text
   class="TextShape"
   id="text17437"><tspan
     class="TextParagraph"
     font-size="388px"
     font-weight="400"
     id="tspan17439"
     style="font-size:388px;font-weight:400;font-family:'Arial, sans-serif'"><tspan
       class="TextPosition"
       x="12689"
       y="2780"
       id="tspan17441"><tspan
         id="tspan17443"
         style="fill:#000000;stroke:none">MNOP</tspan></tspan></tspan></text>

      </g>
     </g>
     <g
   class="com.sun.star.drawing.LineShape"
   id="g17445">
      <g
   id="id7">
       <path
   d="m 3200,2800 770,0"
   id="path17448"
   inkscape:connector-curvature="0"
   style="fill:none;stroke:#000000" />
       <path
   d="m 4400,2800 -450,-150 0,300 450,-150 z"
   id="path17450"
   inkscape:connector-curvature="0"
   style="fill:#000000;stroke:none" />
      </g>
     </g>
     <g
   class="com.sun.star.drawing.LineShape"
   id="g17452">
      <g
   id="id8">
       <path
   d="m 7000,2800 770,0"
   id="path17455"
   inkscape:connector-curvature="0"
   style="fill:none;stroke:#000000" />
       <path
   d="m 8200,2800 -450,-150 0,300 450,-150 z"
   id="path17457"
   inkscape:connector-curvature="0"
   style="fill:#000000;stroke:none" />
      </g>
     </g>
     <g
   class="com.sun.star.drawing.LineShape"
   id="g17459">
      <g
   id="id9">
       <path
   d="m 10800,2800 770,0"
   id="path17462"
   inkscape:connector-curvature="0"
   style="fill:none;stroke:#000000" />
       <path
   d="m 12000,2800 -450,-150 0,300 450,-150 z"
   id="path17464"
   inkscape:connector-curvature="0"
   style="fill:#000000;stroke:none" />
      </g>
     </g>
     <g
   class="com.sun.star.drawing.TextShape"
   id="g17466">
      <g
   id="id10">
       <text
   class="TextShape"
   id="text17469"><tspan
     class="TextParagraph"
     font-size="388px"
     font-weight="400"
     id="tspan17471"
     style="font-size:388px;font-weight:400;font-family:'Arial, sans-serif'"><tspan
       class="TextPosition"
       x="12716"
       y="1393"
       id="tspan17473"><tspan
         id="tspan17475"
         style="fill:#000000;stroke:none">HEAD</tspan></tspan></tspan></text>

      </g>
     </g>
     <g
   class="com.sun.star.drawing.TextShape"
   id="g17477">
      <g
   id="id11">
       <text
   class="TextShape"
   id="text17480"><tspan
     class="TextParagraph"
     font-size="388px"
     font-weight="400"
     id="tspan17482"
     style="font-size:388px;font-weight:400;font-family:'Arial, sans-serif'"><tspan
       class="TextPosition"
       x="8716"
       y="1394"
       id="tspan17484"><tspan
         id="tspan17486"
         style="fill:#000000;stroke:none">HEAD~1</tspan></tspan></tspan></text>

      </g>
     </g>
     <g
   class="com.sun.star.drawing.TextShape"
   id="g17488">
      <g
   id="id12">
       <text
   class="TextShape"
   id="text17491"><tspan
     class="TextParagraph"
     font-size="388px"
     font-weight="400"
     id="tspan17493"
     style="font-size:388px;font-weight:400;font-family:'Arial, sans-serif'"><tspan
       class="TextPosition"
       x="4916"
       y="1395"
       id="tspan17495"><tspan
         id="tspan17497"
         style="fill:#000000;stroke:none">HEAD~2</tspan></tspan></tspan></text>

      </g>
     </g>
     <g
   class="com.sun.star.drawing.TextShape"
   id="g17499">
      <g
   id="id13">
       <text
   class="TextShape"
   id="text17502"><tspan
     class="TextParagraph"
     font-size="388px"
     font-weight="400"
     id="tspan17504"
     style="font-size:388px;font-weight:400;font-family:'Arial, sans-serif'"><tspan
       class="TextPosition"
       x="1116"
       y="1396"
       id="tspan17506"><tspan
         id="tspan17508"
         style="fill:#000000;stroke:none">HEAD~3</tspan></tspan></tspan></text>

      </g>
     </g>
     <g
   class="com.sun.star.drawing.TextShape"
   id="g17510">
      <g
   id="id14">
       <text
   class="TextShape"
   id="text17513"><tspan
     class="TextParagraph"
     font-size="388px"
     font-weight="400"
     id="tspan17515"
     style="font-size:388px;font-weight:400;font-family:'Arial, sans-serif'"><tspan
       class="TextPosition"
       x="12716"
       y="4493"
       id="tspan17517"><tspan
         id="tspan17519"
         style="fill:#000000;stroke:none">87fe65</tspan></tspan></tspan></text>

      </g>
     </g>
     <g
   class="com.sun.star.drawing.TextShape"
   id="g17521">
      <g
   id="id15">
       <text
   class="TextShape"
   id="text17524"><tspan
     class="TextParagraph"
     font-size="388px"
     font-weight="400"
     id="tspan17526"
     style="font-size:388px;font-weight:400;font-family:'Arial, sans-serif'"><tspan
       class="TextPosition"
       x="8716"
       y="4494"
       id="tspan17528"><tspan
         id="tspan17530"
         style="fill:#000000;stroke:none">34cd56</tspan></tspan></tspan></text>

      </g>
     </g>
     <g
   class="com.sun.star.drawing.TextShape"
   id="g17532">
      <g
   id="id16">
       <text
   class="TextShape"
   id="text17535"><tspan
     class="TextParagraph"
     font-size="388px"
     font-weight="400"
     id="tspan17537"
     style="font-size:388px;font-weight:400;font-family:'Arial, sans-serif'"><tspan
       class="TextPosition"
       x="4916"
       y="4495"
       id="tspan17539"><tspan
         id="tspan17541"
         style="fill:#000000;stroke:none">9b8765</tspan></tspan></tspan></text>

      </g>
     </g>
     <g
   class="com.sun.star.drawing.TextShape"
   id="g17543">
      <g
   id="id17">
       <text
   class="TextShape"
   id="text17546"><tspan
     class="TextParagraph"
     font-size="388px"
     font-weight="400"
     id="tspan17548"
     style="font-size:388px;font-weight:400;font-family:'Arial, sans-serif'"><tspan
       class="TextPosition"
       x="1216"
       y="4496"
       id="tspan17550"><tspan
         id="tspan17552"
         style="fill:#000000;stroke:none">1a2345</tspan></tspan></tspan></text>

      </g>
     </g>
    </g>
   </g>
  </g>
 </g>
</svg>

<?xml version="1.0" encoding="UTF-8"?>
<!DOCTYPE svg PUBLIC "-//W3C//DTD SVG 1.1//EN" "http://www.w3.org/Graphics/SVG/1.1/DTD/svg11.dtd">
<svg version="1.2" width="215.9mm" height="279.4mm" viewBox="0 0 21590 27940" preserveAspectRatio="xMidYMid" fill-rule="evenodd" clip-path="url(#presentation_clip_path)" stroke-width="28.222" stroke-linejoin="round" xmlns="http://www.w3.org/2000/svg" xmlns:ooo="http://xml.openoffice.org/svg/export" xmlns:xlink="http://www.w3.org/1999/xlink" xml:space="preserve">
 <defs class="ClipPathGroup">
  <clipPath id="presentation_clip_path" clipPathUnits="userSpaceOnUse">
   <rect x="0" y="0" width="21590" height="27940"/>
  </clipPath>
 </defs>
 <defs class="TextShapeIndex">
  <g ooo:slide="id1" ooo:id-list="id3 id4 id5 id6 id7 id8 id9 id10 id11 id12 id13 id14 id15 id16 id17"/>
 </defs>
 <defs class="EmbeddedBulletChars">
  <g id="bullet-char-template(57356)" transform="scale(0.00048828125,-0.00048828125)">
   <path d="M 580,1141 L 1163,571 580,0 -4,571 580,1141 Z"/>
  </g>
  <g id="bullet-char-template(57354)" transform="scale(0.00048828125,-0.00048828125)">
   <path d="M 8,1128 L 1137,1128 1137,0 8,0 8,1128 Z"/>
  </g>
  <g id="bullet-char-template(10146)" transform="scale(0.00048828125,-0.00048828125)">
   <path d="M 174,0 L 602,739 174,1481 1456,739 174,0 Z M 1358,739 L 309,1346 659,739 1358,739 Z"/>
  </g>
  <g id="bullet-char-template(10132)" transform="scale(0.00048828125,-0.00048828125)">
   <path d="M 2015,739 L 1276,0 717,0 1260,543 174,543 174,936 1260,936 717,1481 1274,1481 2015,739 Z"/>
  </g>
  <g id="bullet-char-template(10007)" transform="scale(0.00048828125,-0.00048828125)">
   <path d="M 0,-2 C -7,14 -16,27 -25,37 L 356,567 C 262,823 215,952 215,954 215,979 228,992 255,992 264,992 276,990 289,987 310,991 331,999 354,1012 L 381,999 492,748 772,1049 836,1024 860,1049 C 881,1039 901,1025 922,1006 886,937 835,863 770,784 769,783 710,716 594,584 L 774,223 C 774,196 753,168 711,139 L 727,119 C 717,90 699,76 672,76 641,76 570,178 457,381 L 164,-76 C 142,-110 111,-127 72,-127 30,-127 9,-110 8,-76 1,-67 -2,-52 -2,-32 -2,-23 -1,-13 0,-2 Z"/>
  </g>
  <g id="bullet-char-template(10004)" transform="scale(0.00048828125,-0.00048828125)">
   <path d="M 285,-33 C 182,-33 111,30 74,156 52,228 41,333 41,471 41,549 55,616 82,672 116,743 169,778 240,778 293,778 328,747 346,684 L 369,508 C 377,444 397,411 428,410 L 1163,1116 C 1174,1127 1196,1133 1229,1133 1271,1133 1292,1118 1292,1087 L 1292,965 C 1292,929 1282,901 1262,881 L 442,47 C 390,-6 338,-33 285,-33 Z"/>
  </g>
  <g id="bullet-char-template(9679)" transform="scale(0.00048828125,-0.00048828125)">
   <path d="M 813,0 C 632,0 489,54 383,161 276,268 223,411 223,592 223,773 276,916 383,1023 489,1130 632,1184 813,1184 992,1184 1136,1130 1245,1023 1353,916 1407,772 1407,592 1407,412 1353,268 1245,161 1136,54 992,0 813,0 Z"/>
  </g>
  <g id="bullet-char-template(8226)" transform="scale(0.00048828125,-0.00048828125)">
   <path d="M 346,457 C 273,457 209,483 155,535 101,586 74,649 74,723 74,796 101,859 155,911 209,963 273,989 346,989 419,989 480,963 531,910 582,859 608,796 608,723 608,648 583,586 532,535 482,483 420,457 346,457 Z"/>
  </g>
  <g id="bullet-char-template(8211)" transform="scale(0.00048828125,-0.00048828125)">
   <path d="M -4,459 L 1135,459 1135,606 -4,606 -4,459 Z"/>
  </g>
 </defs>
 <defs class="TextEmbeddedBitmaps"/>
 <g>
  <g id="id2" class="Master_Slide">
   <g id="bg-id2" class="Background"/>
   <g id="bo-id2" class="BackgroundObjects"/>
  </g>
 </g>
 <g class="SlideGroup">
  <g>
   <g id="id1" class="Slide" clip-path="url(#presentation_clip_path)">
    <g class="Page">
     <g class="com.sun.star.drawing.CustomShape">
      <g id="id3">
       <path fill="none" stroke="rgb(0,0,0)" stroke-width="50" d="M 1171,1850 L 2571,1850 2571,3425 2396,3650 1171,3650 1171,1850 Z"/>
       <path fill="none" stroke="rgb(0,0,0)" stroke-width="50" d="M 2396,3650 L 2442,3425 C 2486,3458 2484,3439 2571,3425 L 2396,3650 Z"/>
       <text class="TextShape"><tspan class="TextParagraph" font-family="Arial, sans-serif" font-size="388px" font-weight="400"><tspan class="TextPosition" x="1331" y="2780"><tspan fill="rgb(0,0,0)" stroke="none">ABCD</tspan></tspan></tspan></text>
      </g>
     </g>
     <g class="com.sun.star.drawing.CustomShape">
      <g id="id4">
       <path fill="none" stroke="rgb(0,0,0)" stroke-width="50" d="M 4971,1850 L 6371,1850 6371,3425 6196,3650 4971,3650 4971,1850 Z"/>
       <path fill="none" stroke="rgb(0,0,0)" stroke-width="50" d="M 6196,3650 L 6242,3425 C 6286,3458 6284,3439 6371,3425 L 6196,3650 Z"/>
       <text class="TextShape"><tspan class="TextParagraph" font-family="Arial, sans-serif" font-size="388px" font-weight="400"><tspan class="TextPosition" x="5131" y="2780"><tspan fill="rgb(0,0,0)" stroke="none">EFGH</tspan></tspan></tspan></text>
      </g>
     </g>
     <g class="com.sun.star.drawing.CustomShape">
      <g id="id5">
       <path fill="none" stroke="rgb(0,0,0)" stroke-width="50" d="M 8771,1850 L 10171,1850 10171,3425 9996,3650 8771,3650 8771,1850 Z"/>
       <path fill="none" stroke="rgb(0,0,0)" stroke-width="50" d="M 9996,3650 L 10042,3425 C 10086,3458 10084,3439 10171,3425 L 9996,3650 Z"/>
       <text class="TextShape"><tspan class="TextParagraph" font-family="Arial, sans-serif" font-size="388px" font-weight="400"><tspan class="TextPosition" x="9084" y="2780"><tspan fill="rgb(0,0,0)" stroke="none">IJKL</tspan></tspan></tspan></text>
      </g>
     </g>
     <g class="com.sun.star.drawing.CustomShape">
      <g id="id6">
       <path fill="none" stroke="rgb(0,0,0)" stroke-width="50" d="M 12571,1850 L 13971,1850 13971,3425 13796,3650 12571,3650 12571,1850 Z"/>
       <path fill="none" stroke="rgb(0,0,0)" stroke-width="50" d="M 13796,3650 L 13842,3425 C 13886,3458 13884,3439 13971,3425 L 13796,3650 Z"/>
       <text class="TextShape"><tspan class="TextParagraph" font-family="Arial, sans-serif" font-size="388px" font-weight="400"><tspan class="TextPosition" x="12689" y="2780"><tspan fill="rgb(0,0,0)" stroke="none">MNOP</tspan></tspan></tspan></text>
      </g>
     </g>
     <g class="com.sun.star.drawing.LineShape">
      <g id="id7">
       <path fill="none" stroke="rgb(0,0,0)" d="M 3200,2800 L 3970,2800"/>
       <path fill="rgb(0,0,0)" stroke="none" d="M 4400,2800 L 3950,2650 3950,2950 4400,2800 Z"/>
      </g>
     </g>
     <g class="com.sun.star.drawing.LineShape">
      <g id="id8">
       <path fill="none" stroke="rgb(0,0,0)" d="M 7000,2800 L 7770,2800"/>
       <path fill="rgb(0,0,0)" stroke="none" d="M 8200,2800 L 7750,2650 7750,2950 8200,2800 Z"/>
      </g>
     </g>
     <g class="com.sun.star.drawing.LineShape">
      <g id="id9">
       <path fill="none" stroke="rgb(0,0,0)" d="M 10800,2800 L 11570,2800"/>
       <path fill="rgb(0,0,0)" stroke="none" d="M 12000,2800 L 11550,2650 11550,2950 12000,2800 Z"/>
      </g>
     </g>
     <g class="com.sun.star.drawing.TextShape">
      <g id="id10">
       <text class="TextShape"><tspan class="TextParagraph" font-family="Arial, sans-serif" font-size="388px" font-weight="400"><tspan class="TextPosition" x="12716" y="1393"><tspan fill="rgb(0,0,0)" stroke="none">HEAD</tspan></tspan></tspan></text>
      </g>
     </g>
     <g class="com.sun.star.drawing.TextShape">
      <g id="id11">
       <text class="TextShape"><tspan class="TextParagraph" font-family="Arial, sans-serif" font-size="388px" font-weight="400"><tspan class="TextPosition" x="8716" y="1394"><tspan fill="rgb(0,0,0)" stroke="none">HEAD~1</tspan></tspan></tspan></text>
      </g>
     </g>
     <g class="com.sun.star.drawing.TextShape">
      <g id="id12">
       <text class="TextShape"><tspan class="TextParagraph" font-family="Arial, sans-serif" font-size="388px" font-weight="400"><tspan class="TextPosition" x="4916" y="1395"><tspan fill="rgb(0,0,0)" stroke="none">HEAD~2</tspan></tspan></tspan></text>
      </g>
     </g>
     <g class="com.sun.star.drawing.TextShape">
      <g id="id13">
       <text class="TextShape"><tspan class="TextParagraph" font-family="Arial, sans-serif" font-size="388px" font-weight="400"><tspan class="TextPosition" x="1116" y="1396"><tspan fill="rgb(0,0,0)" stroke="none">HEAD~3</tspan></tspan></tspan></text>
      </g>
     </g>
     <g class="com.sun.star.drawing.TextShape">
      <g id="id14">
       <text class="TextShape"><tspan class="TextParagraph" font-family="Arial, sans-serif" font-size="388px" font-weight="400"><tspan class="TextPosition" x="12716" y="4493"><tspan fill="rgb(0,0,0)" stroke="none">87fe65</tspan></tspan></tspan></text>
      </g>
     </g>
     <g class="com.sun.star.drawing.TextShape">
      <g id="id15">
       <text class="TextShape"><tspan class="TextParagraph" font-family="Arial, sans-serif" font-size="388px" font-weight="400"><tspan class="TextPosition" x="8716" y="4494"><tspan fill="rgb(0,0,0)" stroke="none">34cd56</tspan></tspan></tspan></text>
      </g>
     </g>
     <g class="com.sun.star.drawing.TextShape">
      <g id="id16">
       <text class="TextShape"><tspan class="TextParagraph" font-family="Arial, sans-serif" font-size="388px" font-weight="400"><tspan class="TextPosition" x="4916" y="4495"><tspan fill="rgb(0,0,0)" stroke="none">9b8765</tspan></tspan></tspan></text>
      </g>
     </g>
     <g class="com.sun.star.drawing.TextShape">
      <g id="id17">
       <text class="TextShape"><tspan class="TextParagraph" font-family="Arial, sans-serif" font-size="388px" font-weight="400"><tspan class="TextPosition" x="1216" y="4496"><tspan fill="rgb(0,0,0)" stroke="none">1a2345</tspan></tspan></tspan></text>
      </g>
     </g>
    </g>
   </g>
  </g>
 </g>
</svg>
